Numix-GalliumOS/24/devices/pda.svg

<?xml version="1.0" encoding="UTF-8" standalone="no"?>
<svg
   xmlns:dc="http://purl.org/dc/elements/1.1/"
   xmlns:cc="http://creativecommons.org/ns#"
   xmlns:rdf="http://www.w3.org/1999/02/22-rdf-syntax-ns#"
   xmlns:svg="http://www.w3.org/2000/svg"
   xmlns="http://www.w3.org/2000/svg"
   xmlns:sodipodi="http://sodipodi.sourceforge.net/DTD/sodipodi-0.dtd"
   xmlns:inkscape="http://www.inkscape.org/namespaces/inkscape"
   width="24"
   height="24"
   viewBox="0 0 24 24"
   id="svg3063"
   version="1.1"
   inkscape:version="0.91 r"
   sodipodi:docname="pda.svg">
  <metadata
     id="metadata3071">
    <rdf:RDF>
      <cc:Work
         rdf:about="">
        <dc:format>image/svg+xml</dc:format>
        <dc:type
           rdf:resource="http://purl.org/dc/dcmitype/StillImage" />
        <dc:title></dc:title>
      </cc:Work>
    </rdf:RDF>
  </metadata>
  <defs
     id="defs3069" />
  <sodipodi:namedview
     pagecolor="#ffffff"
     bordercolor="#666666"
     borderopacity="1"
     objecttolerance="10"
     gridtolerance="10"
     guidetolerance="10"
     inkscape:pageopacity="0"
     inkscape:pageshadow="2"
     inkscape:window-width="1920"
     inkscape:window-height="1056"
     id="namedview3067"
     showgrid="true"
     inkscape:zoom="7.5853273"
     inkscape:cx="58.615216"
     inkscape:cy="-0.66852836"
     inkscape:window-x="0"
     inkscape:window-y="24"
     inkscape:window-maximized="1"
     inkscape:current-layer="svg3063">
    <inkscape:grid
       type="xygrid"
       id="grid4154" />
  </sodipodi:namedview>
  <rect
     style="opacity:1;fill:#5aa9e1;fill-opacity:1;fill-rule:nonzero;stroke:none;stroke-width:0.30000001;stroke-linecap:round;stroke-linejoin:miter;stroke-miterlimit:4;stroke-dasharray:none;stroke-dashoffset:0;stroke-opacity:1"
     id="rect4166"
     width="11.636364"
     height="12.8"
     x="6.181819"
     y="3.5636346" />
  <path
     style="fill:#fdf6e3;fill-opacity:0.18823529;fill-rule:evenodd;stroke:none;stroke-width:1px;stroke-linecap:butt;stroke-linejoin:miter;stroke-opacity:1"
     d="m 15,3.0000302 -7.072727,13.3636048 9.890909,0 0,-13.3636048 z"
     id="path4168"
     inkscape:connector-curvature="0"
     sodipodi:nodetypes="ccccc" />
  <rect
     style="opacity:1;fill:#a9aeb7;fill-opacity:1;fill-rule:nonzero;stroke:none;stroke-width:0.30000001;stroke-linecap:round;stroke-linejoin:miter;stroke-miterlimit:4;stroke-dasharray:none;stroke-dashoffset:0;stroke-opacity:1"
     id="rect4157"
     width="11.636364"
     height="4.6545453"
     x="6.181819"
     y="15.37248"
     rx="0.99999988"
     ry="0.99999988" />
  <g
     transform="matrix(0.58181818,0,0,0.58181818,-1.9636361,-586.02889)"
     id="g3038"
     style="fill:#073642;fill-opacity:1">
    <path
       style="color:#000000;line-height:normal;fill:#073642;fill-opacity:1"
       d="M 5.875,2 C 5.4015729,2 5,2.3976675 5,2.8710938 L 5,18.544922 c 0,0.04014 0.043949,0.393064 0.2363281,0.599609 0.1923771,0.206604 0.4546953,0.341507 0.8378907,0.455078 C 6.8406099,19.82675 8.1763703,20 10.820312,20 l 0.359376,0 c 2.356248,0 3.698134,-0.183896 4.509765,-0.400391 0.405815,-0.108276 0.680836,-0.218466 0.890625,-0.363281 C 16.789874,19.091515 17,18.935264 17,18.544922 L 17,2.8710938 C 17,2.3976675 16.598428,2 16.125,2 L 5.875,2 Z M 6,3 16,3 16,14 6,14 6,3 Z M 7,15 A 0.5,0.5 0 0 1 7.5,15.5 0.5,0.5 0 0 1 7,16 0.5,0.5 0 0 1 6.5,15.5 0.5,0.5 0 0 1 7,15 Z m 1.5,0 A 0.5,0.5 0 0 1 9,15.5 0.5,0.5 0 0 1 8.5,16 0.5,0.5 0 0 1 8,15.5 0.5,0.5 0 0 1 8.5,15 Z M 10,15 A 0.5,0.5 0 0 1 10.5,15.5 0.5,0.5 0 0 1 10,16 0.5,0.5 0 0 1 9.5,15.5 0.5,0.5 0 0 1 10,15 Z m 2,0 A 0.5,0.5 0 0 1 12.5,15.5 0.5,0.5 0 0 1 12,16 0.5,0.5 0 0 1 11.5,15.5 0.5,0.5 0 0 1 12,15 Z m 1.5,0 A 0.5,0.5 0 0 1 14,15.5 0.5,0.5 0 0 1 13.5,16 0.5,0.5 0 0 1 13,15.5 0.5,0.5 0 0 1 13.5,15 Z M 15,15 A 0.5,0.5 0 0 1 15.5,15.5 0.5,0.5 0 0 1 15,16 0.5,0.5 0 0 1 14.5,15.5 0.5,0.5 0 0 1 15,15 Z m -4,1.5 A 1.25,1.25 0 0 1 12.25,17.75 1.25,1.25 0 0 1 11,19 1.25,1.25 0 0 1 9.75,17.75 1.25,1.25 0 0 1 11,16.5 Z M 7,17 A 0.5,0.5 0 0 1 7.5,17.5 0.5,0.5 0 0 1 7,18 0.5,0.5 0 0 1 6.5,17.5 0.5,0.5 0 0 1 7,17 Z m 1.5,0 A 0.5,0.5 0 0 1 9,17.5 0.5,0.5 0 0 1 8.5,18 0.5,0.5 0 0 1 8,17.5 0.5,0.5 0 0 1 8.5,17 Z m 5,0 A 0.5,0.5 0 0 1 14,17.5 0.5,0.5 0 0 1 13.5,18 0.5,0.5 0 0 1 13,17.5 0.5,0.5 0 0 1 13.5,17 Z M 15,17 A 0.5,0.5 0 0 1 15.5,17.5 0.5,0.5 0 0 1 15,18 0.5,0.5 0 0 1 14.5,17.5 0.5,0.5 0 0 1 15,17 Z"
       transform="matrix(1.71875,0,0,1.71875,5.0937497,1008.9559)"
       id="path3040"
       inkscape:connector-curvature="0" />
  </g>
  <path
     style="fill:#eee8d5;fill-opacity:0.1485944;stroke:none"
     d="m 16,20.748072 c 0.26407,-0.04632 0.493775,-0.09624 0.689453,-0.148438 0.121196,-0.03234 0.210936,-0.06606 0.310547,-0.09961 l 0,-17.5000004 -1,0 z"
     id="rect3767-3"
     inkscape:connector-curvature="0"
     sodipodi:nodetypes="cccccc" />
  <g
     style="fill:#073642;fill-opacity:1"
     id="g4204"
     transform="matrix(0.58181818,0,0,0.58181818,-2.9636362,-585.02891)" />
  <g
     style="fill:#073642;fill-opacity:1"
     id="g4163"
     transform="matrix(0.58181818,0,0,0.58181818,-2.9636362,-585.02891)" />
</svg>

<svg xmlns="http://www.w3.org/2000/svg" viewBox="0 0 24 24">
 <rect width="11.636" height="12.8" x="6.182" y="3.564" style="fill:#5aa9e1;opacity:1;fill-opacity:1;stroke:none;fill-rule:nonzero"/>
 <path d="m 15 3 -7.07 13.364 9.891 0 0 -13.364 z" style="fill:#fdf6e3;fill-opacity:0.188;stroke:none;fill-rule:evenodd"/>
 <rect width="11.636" height="4.655" x="6.182" y="15.372" rx="1" style="fill:#a9aeb7;opacity:1;fill-opacity:1;stroke:none;fill-rule:nonzero"/>
 <g transform="matrix(0.58181818,0,0,0.58181818,-1.9636361,-586.02889)" style="fill:#073642;fill-opacity:1">
  <path d="m 5.875 2 c -0.473 0 -0.875 0.398 -0.875 0.871 l 0 15.674 c 0 0.04 0.044 0.393 0.236 0.6 0.192 0.207 0.455 0.342 0.838 0.455 c 0.766 0.227 2.102 0.4 4.746 0.4 l 0.359 0 c 2.356 0 3.698 -0.184 4.51 -0.4 0.406 -0.108 0.681 -0.218 0.891 -0.363 c 0.21 -0.145 0.42 -0.301 0.42 -0.691 l 0 -15.674 c 0 -0.473 -0.402 -0.871 -0.875 -0.871 l -10.25 0 m 0.125 1 10 0 0 11 -10 0 0 -11 m 1 12 a 0.5 0.5 0 0 1 0.5 0.5 0.5 0.5 0 0 1 -0.5 0.5 0.5 0.5 0 0 1 -0.5 -0.5 0.5 0.5 0 0 1 0.5 -0.5 m 1.5 0 a 0.5 0.5 0 0 1 0.5 0.5 0.5 0.5 0 0 1 -0.5 0.5 0.5 0.5 0 0 1 -0.5 -0.5 0.5 0.5 0 0 1 0.5 -0.5 m 1.5 0 a 0.5 0.5 0 0 1 0.5 0.5 0.5 0.5 0 0 1 -0.5 0.5 0.5 0.5 0 0 1 -0.5 -0.5 0.5 0.5 0 0 1 0.5 -0.5 m 2 0 a 0.5 0.5 0 0 1 0.5 0.5 0.5 0.5 0 0 1 -0.5 0.5 0.5 0.5 0 0 1 -0.5 -0.5 0.5 0.5 0 0 1 0.5 -0.5 m 1.5 0 a 0.5 0.5 0 0 1 0.5 0.5 0.5 0.5 0 0 1 -0.5 0.5 0.5 0.5 0 0 1 -0.5 -0.5 0.5 0.5 0 0 1 0.5 -0.5 m 1.5 0 a 0.5 0.5 0 0 1 0.5 0.5 0.5 0.5 0 0 1 -0.5 0.5 0.5 0.5 0 0 1 -0.5 -0.5 0.5 0.5 0 0 1 0.5 -0.5 m -4 1.5 a 1.25 1.25 0 0 1 1.25 1.25 1.25 1.25 0 0 1 -1.25 1.25 1.25 1.25 0 0 1 -1.25 -1.25 1.25 1.25 0 0 1 1.25 -1.25 m -4 0.5 a 0.5 0.5 0 0 1 0.5 0.5 0.5 0.5 0 0 1 -0.5 0.5 0.5 0.5 0 0 1 -0.5 -0.5 0.5 0.5 0 0 1 0.5 -0.5 m 1.5 0 a 0.5 0.5 0 0 1 0.5 0.5 0.5 0.5 0 0 1 -0.5 0.5 0.5 0.5 0 0 1 -0.5 -0.5 0.5 0.5 0 0 1 0.5 -0.5 m 5 0 a 0.5 0.5 0 0 1 0.5 0.5 0.5 0.5 0 0 1 -0.5 0.5 0.5 0.5 0 0 1 -0.5 -0.5 0.5 0.5 0 0 1 0.5 -0.5 m 1.5 0 a 0.5 0.5 0 0 1 0.5 0.5 0.5 0.5 0 0 1 -0.5 0.5 0.5 0.5 0 0 1 -0.5 -0.5 0.5 0.5 0 0 1 0.5 -0.5" transform="matrix(1.71875,0,0,1.71875,5.0937497,1008.9559)" style="color:#000"/>
 </g>
 <path d="m 16 20.748 c 0.264 -0.046 0.494 -0.096 0.689 -0.148 0.121 -0.032 0.211 -0.066 0.311 -0.1 l 0 -17.5 -1 0 z" style="fill:#eee8d5;fill-opacity:0.149;stroke:none"/>
</svg>
